static/logos/greenhouse-glyph-color.svg

<svg width="24" height="50" viewBox="0 0 24 50" fill="none" xmlns="http://www.w3.org/2000/svg">
<path d="M19.7383 15.7015C19.7383 17.9881 18.7717 20.0098 17.1883 21.5915C15.43 23.3498 12.88 23.7915 12.88 25.2848C12.88 27.3065 16.1333 26.6915 19.255 29.8131C21.3217 31.8798 22.595 34.6048 22.595 37.7698C22.595 44.0115 17.5833 48.9798 11.2983 48.9798C5.01167 48.9781 0 44.0165 0 37.7715C0 34.6065 1.275 31.8815 3.34167 29.8148C6.46167 26.6948 9.715 27.3098 9.715 25.2881C9.715 23.7931 7.165 23.3531 5.40667 21.5948C3.82333 20.0115 2.85667 17.9898 2.85667 15.6165C2.85667 11.0449 6.59333 7.35153 11.165 7.35153C12.045 7.35153 12.8367 7.48486 13.495 7.48486C14.6833 7.48486 15.2983 6.95653 15.2983 6.12153C15.2983 5.6382 15.0783 5.02153 15.0783 4.3632C15.0783 2.8682 16.3533 1.63654 17.8917 1.63654C19.43 1.63654 20.6617 2.91153 20.6617 4.44986C20.6617 6.07653 19.3867 6.82486 18.42 7.17653C17.6283 7.43986 17.0117 7.79153 17.0117 8.5832C17.0117 10.0732 19.7383 11.5249 19.7383 15.7015ZM18.8583 37.7731C18.8583 33.4231 15.65 29.9048 11.2983 29.9048C6.945 29.9048 3.73667 33.4215 3.73667 37.7731C3.73667 42.0815 6.945 45.6431 11.2983 45.6431C15.6483 45.6431 18.8583 42.0765 18.8583 37.7731ZM16.2667 15.6132C16.2667 12.8449 14.025 10.5582 11.3 10.5582C8.57333 10.5582 6.33333 12.8449 6.33333 15.6132C6.33333 18.3831 8.57333 20.6698 11.3 20.6698C14.025 20.6698 16.2667 18.3831 16.2667 15.6132Z" fill="#008561"/>
</svg>

<svg xmlns="http://www.w3.org/2000/svg" width="30.72" height="64" fill="none" viewBox="0 0 24 50"><path fill="#008561" d="M19.738 15.701c0 2.287-.966 4.309-2.55 5.89-1.758 1.759-4.308 2.2-4.308 3.694 0 2.021 3.253 1.407 6.375 4.528 2.067 2.067 3.34 4.792 3.34 7.957 0 6.241-5.012 11.21-11.297 11.21C5.012 48.978 0 44.017 0 37.772c0-3.166 1.275-5.89 3.342-7.957 3.12-3.12 6.373-2.505 6.373-4.527 0-1.495-2.55-1.935-4.308-3.693-1.584-1.583-2.55-3.605-2.55-5.978 0-4.572 3.736-8.265 8.308-8.265.88 0 1.672.133 2.33.133 1.188 0 1.803-.528 1.803-1.363 0-.484-.22-1.1-.22-1.759 0-1.495 1.275-2.726 2.814-2.726 1.538 0 2.77 1.275 2.77 2.813 0 1.627-1.275 2.375-2.242 2.727-.792.263-1.408.615-1.408 1.406 0 1.49 2.726 2.942 2.726 7.118Zm-.88 22.072c0-4.35-3.208-7.868-7.56-7.868-4.353 0-7.561 3.517-7.561 7.868 0 4.308 3.208 7.87 7.561 7.87 4.35 0 7.56-3.566 7.56-7.87Zm-2.591-22.16c0-2.768-2.242-5.055-4.967-5.055-2.727 0-4.967 2.287-4.967 5.055 0 2.77 2.24 5.057 4.967 5.057 2.725 0 4.967-2.287 4.967-5.057Z"/></svg>
